X:1
T:Willingham (Wesley), 66.7.77
T:Samuel Sebastian Wesley, 1872
T:Willingham (Wesley), 66.7.77
T:Public Domain
C:Samuel Sebastian Wesley, 1872
Z:Public Domain
%%score ( 1 2 ) ( 3 4 )
L:1/8
M:4/4
K:C
V:1 treble 
V:2 treble 
V:3 bass 
V:4 bass 
V:1
 G2 | [Cc]2 [CE]2 [CF]2 [FA]2 | [EG]6 [CG]2 | [CA]2 [CG]2 [CF]2 [B,D]2 | [CE]8 | %5
 [EA]2 (ED) [Cc]2 [FA]2 | [Fd]2 (ED) [CA]4 | [Ec]2 [Ce]2 [Dd]2 [GB]2 | [Gc]2 [^Fd]2 [GB]4 | %9
 G2 [Fc]2 E2 [DF]2 | [CG]2 [CA]2 [B,D]4 | [B,G]2 [G,E]2 [A,A]2 [A,G]2 | (A,/B,/) C2 z C C2 |] %13
V:2
 G2 | x8 | x8 | x8 | x8 | x2 B2 x4 | x2 c2 x4 | x8 | x8 | G2 E2 x4 | x8 | x8 | A E2 (D2 C2) |] %13
V:3
 G,2 | [E,G,]2 [C,G,]2 [A,,A,]2 [F,,C]2 | [C,C]6 [C,E,]2 | F,2 [E,G,]2 [D,A,]2 G,2 | [C,G,]8 | %5
 [C,A,]2 [E,^G,]2 A,2 [F,C]2 | [D,B,]2 [E,^G,]2 [A,,A,]4 | A,2 (A,G,) [^F,A,]2 [G,D]2 | %8
 [A,C]2 (A,D) [G,E]4 | [B,D]2 [A,C]2 [G,B,]2 [F,A,]2 | [E,G,]2 [F,D]2 [G,D]4 | %11
 [E,G,]2 E,D, [^C,D]2 [A,,^C]2 | [D,D](E,F,) z G, [C,E,]2 |] %13
V:4
 G,2 | x8 | x8 | F,2 x2 G,2 x2 | x8 | x4 A,2 x2 | x8 | A,2 A,2 x4 | x2 D,2 x4 | x8 | x8 | %11
 x2 B,2 x4 | x G,2 G,2 x2 |] %13

